X:5528
T:Revenant de Paris
O:england
C:F. Paris: Carnet de bal
C:3x AB AB' AB AB'B'
M:3/4
L:1/4
K:C
A/B/|:c3|d~cB|A>de|d3|1 c2~B|AG2|\
+G2B2d2+ A/B/:|2 cAB|G3|+G2B2d2+ ~B||
|:A3|G/F/~ED|G3|GAB|c2~B|1 AG~B:|2 AG2|+G3B3d3+||
L:1/8
P:Variation B'
|:A2Ad Ad|Ed Fd Ad|B2Bd Gd|Dd Gd Bd|\
AB cA FA|EF AB AF|{GG}G2 DG B,D|+B,6G6+:|


